X:1
T:Miss Stewart of Grantully
T:Miss Stewart of Grantully
T:Niel Gow
C:Niel Gow
L:1/8
Q:1/8=128
M:4/4
K:A
V:1 treble 
V:1
|: e | A<A c>A c/d/e c2 | B<=G B>c d/c/B/A/ G>B | A<A c>A c/d/e c2 | A<a e>f c<A Ae | %5
 A<A c>A c/d/e c2 | B<=G B>c d/c/B/A/ G>B | A<A c>A c/d/e c2 | A<a e>f c<A Ag | %9
 a>e a>e a/g/f/e/ a>e | =g>d g>d B<=G G>^g | a>e a>e a/g/f/e/ a>e | f>e a>e c<A A>g | %13
 a>e a>e a/g/f/e/ ae | =g>d g>d B<=G G>B | AA c>A c/d/e c2 | A<a e>f c<A A :| %17

